[11:3:44.938]	move to movej([3.39, -2.12, -1.34, -1.18, 1.53, 0.92], a=1.4, v=0.5)

[11:3:44.938]	the sent state is 61, the sent data length is61
[11:3:46.953]	move to movej([3.22, -2.12, -1.34, -1.18, 1.53, 0.92], a=1.4, v=0.5)

[11:3:46.953]	the sent state is 61, the sent data length is61
[11:3:48.969]	move to movej([3.39, -2.12, -1.34, -1.18, 1.53, 0.92], a=1.4, v=0.5)

[11:3:48.969]	the sent state is 61, the sent data length is61
[11:3:50.984]	move to movej([3.22, -2.12, -1.34, -1.18, 1.53, 0.92], a=1.4, v=0.5)

[11:3:50.984]	the sent state is 61, the sent data length is61
[11:3:52.999]	move to movej([3.39, -2.12, -1.34, -1.18, 1.53, 0.92], a=1.4, v=0.5)

[11:3:52.999]	the sent state is 61, the sent data length is61
[11:3:55.14]	move to movej([3.22, -2.12, -1.34, -1.18, 1.53, 0.92], a=1.4, v=0.5)

[11:3:55.14]	the sent state is 61, the sent data length is61
[11:3:57.29]	move to movej([3.39, -2.12, -1.34, -1.18, 1.53, 0.92], a=1.4, v=0.5)

[11:3:57.29]	the sent state is 61, the sent data length is61
[11:3:59.44]	move to movej([3.22, -2.12, -1.34, -1.18, 1.53, 0.92], a=1.4, v=0.5)

[11:3:59.44]	the sent state is 61, the sent data length is61
[11:4:1.59]	move to movej([3.39, -2.12, -1.34, -1.18, 1.53, 0.92], a=1.4, v=0.5)

[11:4:1.59]	the sent state is 61, the sent data length is61
[11:4:3.75]	move to movej([3.22, -2.12, -1.34, -1.18, 1.53, 0.92], a=1.4, v=0.5)

[11:4:3.75]	the sent state is 61, the sent data length is61
[11:4:5.90]	move to movej([3.39, -2.12, -1.34, -1.18, 1.53, 0.92], a=1.4, v=0.5)

[11:4:5.90]	the sent state is 61, the sent data length is61
[11:4:7.105]	move to movej([3.22, -2.12, -1.34, -1.18, 1.53, 0.92], a=1.4, v=0.5)

[11:4:7.105]	the sent state is 61, the sent data length is61
[11:4:9.120]	move to movej([3.39, -2.12, -1.34, -1.18, 1.53, 0.92], a=1.4, v=0.5)

[11:4:9.120]	the sent state is 61, the sent data length is61
[11:4:11.135]	move to movej([3.22, -2.12, -1.34, -1.18, 1.53, 0.92], a=1.4, v=0.5)

[11:4:11.135]	the sent state is 61, the sent data length is61
[11:4:13.150]	move to movej([3.39, -2.12, -1.34, -1.18, 1.53, 0.92], a=1.4, v=0.5)

[11:4:13.150]	the sent state is 61, the sent data length is61
[11:4:15.165]	move to movej([3.22, -2.12, -1.34, -1.18, 1.53, 0.92], a=1.4, v=0.5)

[11:4:15.165]	the sent state is 61, the sent data length is61
[11:4:17.181]	move to movej([3.39, -2.12, -1.34, -1.18, 1.53, 0.92], a=1.4, v=0.5)

[11:4:17.181]	the sent state is 61, the sent data length is61
[11:4:19.196]	move to movej([3.22, -2.12, -1.34, -1.18, 1.53, 0.92], a=1.4, v=0.5)

[11:4:19.196]	the sent state is 61, the sent data length is61
[11:4:21.211]	move to movej([3.39, -2.12, -1.34, -1.18, 1.53, 0.92], a=1.4, v=0.5)

[11:4:21.211]	the sent state is 61, the sent data length is61
[11:4:23.226]	move to movej([3.22, -2.12, -1.34, -1.18, 1.53, 0.92], a=1.4, v=0.5)

[11:4:23.226]	the sent state is 61, the sent data length is61
[11:4:25.241]	move to movej([3.39, -2.12, -1.34, -1.18, 1.53, 0.92], a=1.4, v=0.5)

[11:4:25.241]	the sent state is 61, the sent data length is61
[11:4:27.256]	move to movej([3.22, -2.12, -1.34, -1.18, 1.53, 0.92], a=1.4, v=0.5)

[11:4:27.256]	the sent state is 61, the sent data length is61
[11:4:29.272]	move to movej([3.39, -2.12, -1.34, -1.18, 1.53, 0.92], a=1.4, v=0.5)

[11:4:29.272]	the sent state is 61, the sent data length is61
[11:4:31.287]	move to movej([3.22, -2.12, -1.34, -1.18, 1.53, 0.92], a=1.4, v=0.5)

[11:4:31.287]	the sent state is 61, the sent data length is61
[11:4:33.317]	move to movej([3.39, -2.12, -1.34, -1.18, 1.53, 0.92], a=1.4, v=0.5)

[11:4:33.317]	the sent state is 61, the sent data length is61
[11:4:35.333]	move to movej([3.22, -2.12, -1.34, -1.18, 1.53, 0.92], a=1.4, v=0.5)

[11:4:35.333]	the sent state is 61, the sent data length is61
[11:4:37.348]	move to movej([3.39, -2.12, -1.34, -1.18, 1.53, 0.92], a=1.4, v=0.5)

[11:4:37.348]	the sent state is 61, the sent data length is61
[11:4:39.363]	move to movej([3.22, -2.12, -1.34, -1.18, 1.53, 0.92], a=1.4, v=0.5)

[11:4:39.363]	the sent state is 61, the sent data length is61
